X: 15
T: Caller Herring
R:Slow Air
C:Nathaniel Gow
S:MacDonald - Skye Collection
N:pg.162
M:C
L:1/8
K:Bb
F|B2 B>B A2 Bz/c/|(dB) c>B A(FGA)|B2 B>B A2 Bz/c/|(dB) (cA) B3:|
|:[gb]|[fa][eg][df][eg] [Bd][Fc][DB][gb]|[fa][eg][df][eg] [Bd][Fc][DB][gb]|
[fa][eg][df][eg] [Bd][=Bd][ce][df]|gG ~c>B (AF)GA|B2 B>B (A2 B)z/c/|
dG ~c>B (AF)GA|B2 B>B A2 Bz/c/|de c>B B3:|
|:f|b2 b>b a2 bz/a/|(gfed) cde=e|f2 f>f (=e2 f)z/g/|a>b g>f f3d|e2 e>e d2 e>f|
gG c>B (AFGA)|B2 B>B A2 Bg/e/|d>e d>B [D3F3B3]:|


